X: 19237
T: It's A Braw Bricht Moonlicht Nicht
R: waltz
M: 3/4
K: Gmajor
D2|G3 AG2|G2 B2 d2|d2 c2 A2|FD3 D2|
G3 AG2|G2 B2 d2|d2^c2 d2|d4 D2|
G3 AG2|G2 B2 d2|d2 c2 A2|FD3 D2|
G3 AGF|G2 B2 d2|c2 B2 A2|G4 d2|
g4 g2|f2 d2 d2|e4 d2|BAG4|
c3d c2|B3AG2|E2G2B2|A4d2|
g4 g2|f2 d2 d2|e4 d2|BAG4|
c3d c2|B3AG2|A2B2A2|G4 D2|

